X:356
T:Reel 356
M:4/4
K:Emin
L:1/8
BA|:GEEF G2EF|G2FG AcBA|GEEF G2Bc|dBcA FDD:||2GFEF GABA|Bee^d e2|ef|gfed edBA|GFGA Beef|gfed edBA|Beed efef|gfgf edBA|GFGA Bcdf|edBA d2BA| (3Bcd AF GEE2|
